lib/brands/icons/coub.svg

<svg xmlns="http://www.w3.org/2000/svg" fill="none" aria-hidden="true" viewBox="0 0 48 48"><g id="coub-Icon"><path id="vector" fill="white" fill-rule="evenodd" d="M24 45C35.598 45 45 35.598 45 24C45 12.402 35.598 3 24 3C12.402 3 3 12.402 3 24C3 35.598 12.402 45 24 45V45Z" clip-rule="evenodd"/><path id="vector_2" fill="#1848F7" fill-rule="evenodd" d="M12.9762 41.8773C6.98925 38.1777 3 31.5547 3 24C3 12.402 12.402 3 24 3C35.598 3 45 12.402 45 24C45 35.598 35.598 45 24 45C23.4434 45 22.8919 44.9783 22.3462 44.9358L24.412 39.2602C25.125 37.3012 27.1374 36.1915 28.1629 34.448C29.0775 32.8905 31.8671 28.2117 31.8953 28.1643C32.4686 27.3422 33.3885 25.9366 33.9556 25.0192L37.0533 19.9865C37.6199 19.0666 37.6628 17.912 37.1488 17.4137C36.4659 16.7555 35.417 17.4667 34.9564 18.0514C33.2924 20.3717 31.5647 22.419 29.7305 24.554C29.4524 24.8792 28.7358 25.3849 28.8545 24.4172C28.865 24.3686 29.4101 22.0777 27.9645 21.4673L27.9013 21.4433C27.1199 21.1589 26.4976 21.6475 25.8069 22.4691C25.5309 22.797 25.0442 22.4399 25.1271 22.0714C25.3736 20.9691 24.9191 19.9382 24.0465 19.6206L23.9794 19.5983C22.8208 19.2265 22.0152 20.8968 21.1819 20.5936C20.7723 20.4444 20.8174 19.3379 20.7787 19.01C20.451 16.1253 20.7185 13.2985 20.8899 10.4059C20.9135 9.57018 20.4023 8.48347 19.4267 8.60667C18.5956 8.71356 17.8819 9.65565 17.8008 10.752L17.25 16.5C17.1402 17.9846 17.9421 22.3619 16.5366 23.3313C15.1965 24.2745 13.6645 25.3944 13.6069 27.1597C13.5052 29.9348 16.064 33.3936 15.1743 35.838C15.1695 35.8512 13.7169 39.8423 12.9762 41.8773Z" clip-rule="evenodd"/></g></svg>

<svg xmlns="http://www.w3.org/2000/svg" fill="none" aria-hidden="true" viewBox="0 0 48 48"><g fill-rule="evenodd" clip-rule="evenodd"><path fill="#fff" d="M24 45c11.598 0 21-9.402 21-21S35.598 3 24 3 3 12.402 3 24s9.402 21 21 21Z"/><path fill="#1848F7" d="M12.976 41.877C6.99 38.177 3 31.555 3 24 3 12.402 12.402 3 24 3s21 9.402 21 21-9.402 21-21 21a21.55 21.55 0 0 1-1.654-.064l2.066-5.676c.713-1.959 2.725-3.069 3.75-4.812.916-1.557 3.705-6.236 3.733-6.284a82.074 82.074 0 0 0 2.06-3.145l3.098-5.032c.567-.92.61-2.075.096-2.573-.683-.659-1.732.053-2.193.637-1.664 2.32-3.391 4.368-5.226 6.503-.278.325-.994.83-.875-.137.01-.048.555-2.34-.89-2.95l-.064-.024c-.781-.284-1.403.204-2.094 1.026-.276.328-.763-.03-.68-.398.247-1.102-.208-2.133-1.08-2.45l-.068-.023c-1.158-.371-1.964 1.299-2.797.996-.41-.15-.365-1.256-.403-1.584-.328-2.885-.06-5.712.11-8.604.024-.836-.487-1.923-1.462-1.8-.831.108-1.545 1.05-1.626 2.146L17.25 16.5c-.11 1.485.692 5.862-.713 6.831-1.34.944-2.872 2.063-2.93 3.829-.102 2.775 2.457 6.234 1.567 8.678l-2.198 6.04Z"/></g></svg>
